X:1

T:Rob an Lugi

M:C

L:1/8

R:Strathspey

B:Stewart-Robertson – The Athole Collection  (1884)

Z:AK/Fiddler’s Companion

R:Strathspey

K:A

e|A/A/A c2 e>a c>A|A/A/A c2 d>=g B=G|A/A/A c2 e>ac>a|=g>a ef g>dB>=G:|

a2 ef/g/ a>ec>A|a2 e>f =g>dB>=G|1 a2 ef/g/ a<e f>d|e>ac>a d=g B>=G:|2

a2 e<=g f>be>g|f>ae>f =g>dB>=G||

                       

ROB DONN. AKA and see "Robb Donn Mackay the Poet."

                       

ROB ON LUGY. See “Rob an Lugi.”

                                   

ROB ROY [1]. Scottish, Strathspey. F Major. Standard tuning. AABBCC'. Rob Roy Macgregor was a famous robber chief of the Highlands who was born around 1660, the second son of Colonel MacGregor of Glengyle. Rob Roy was a landed man, son of a government officer, who was once a legitimate cattle dealer or drover. He had the misfortune to fall into debt and owed large sums of money to the Duke of Montrose, and when the latter confiscated Rob Roy's lands as forfeiture for his debt, the Macgregor became an outlaw. For over 30 years, in true Robin Hood fashion, Rob Roy and his followers waged war with the Duke, robbing, rustling cattle, and stealing grain (which was rent‑in‑kind to the Duke). Neil (1991) says:

***

He lived to a ripe old age and when visited by a former enemy
on his deathbed, he insisted that he be fully armed with claymore,

dirk and pistols, as he did not wish to face him 'defenceless and

unarmed.' Soon after he asked to let the piper play 'Cha Till Mi

Tuilleadh' (I Shall Return No More) and he is said to have died

before the tune was finished.

***

Rob Roy MacGregor (from an anonymous painting).

***

Rob Roy is buried in Balquhidder Churchyard. Neil (The Scots Fiddle), 1991; No. 108, pg. 145.

 

ROB ROY [2]. AKA and see “Dusty Bob’s (Jig),” “Jack’s Alive [3].” American, Scottish; Quadrille (6/8 time). G Major. Standard tuning. AABB. See notes under alternate titles for more on this tune. Ford (Traditional American Fiddle Tunes), 1940; pg. 93.

